X:1
T:Magnificat 2nd toni - Soriano
T:#
%%score [ 1 2 3 4 ]
L:1/8
Q:1/4=130
M:none
K:F
V:1 treble nm="S" snm="S"
V:2 treble nm="A" snm="A"
V:3 treble-8 nm="T" snm="T"
V:4 bass nm="B" snm="B"
V:1
 x8 x4 x2 ||"^Magnificat secundi toni""^Francesco Soriano\n(1549-1621)"[Q:1/4=200] z4 B6 B2 B4 | %2
w: |A- ni- ma|
 B8 A4 (F2 G2 | A2 G2 G8) ^F4 | G16 || z18 | z16 || %7
w: me- a Do\- *|* * * mi-|num.|||
[Q:1/4=200][Q:1/4=200][Q:1/4=200][Q:1/4=200] z4 F4 E4 E4 | F8 F4 d4 | B6 A2 G8 | %10
w: Qui- a re-|spe- xit hu-|mi- li- ta-|
 F4 F4 (G2 A2 B2 G2 | A2 B2 c4) B4 (d4- | d2 c2 B8 A4) | B4 d8 d4 |[M:4/2] d8 c4 A4 | A4 G4 A8 | %16
w: tem an- cil\- * * *|* * * lae su\-||ae: ec- ce|e- nim ex|hoc be- a-|
 A4 B4 B8 | B4 B8 A4 | G4 B4 A8 | A4 (G8 ^F4) | G16 || %21
w: tam me di-|cent o- mnes|ge- ne- ra-|ti- o\- *|nes.|
[Q:1/4=130][Q:1/4=130][Q:1/4=130][Q:1/4=130] z20 | z16 || %23
w: ||
[Q:1/4=200][Q:1/4=200][Q:1/4=200][Q:1/4=200] z16 | z8 B6 G2 | A4 F4 G6 G2 | (F6 G2) _E8 | D8 z8 | %28
w: |Et mi-|se- ri- cor- di-|a * e-|ius|
 z8 z4 d4- |[M:4/2] d4 c8 (B4- | B4 A2 G2 A4) A4 | B4 d4 B8 | A4 G4 A8 | G4 G4 G4 B4 | %34
w: in|* pro- ge\-|* * * * ni-|es ti- men-|ti- bus e-|um, ti- men- ti-|
 (A2 G2) (G8 ^F4) | G16 ||[Q:1/4=130][Q:1/4=130][Q:1/4=130][Q:1/4=130] z18 | z16 || %38
w: bus * e\- *|um.|||
[Q:1/4=200][Q:1/4=200][Q:1/4=200][Q:1/4=200] G8 A6 A2 | A4 G4 ^F8 | ^F4 G4 A8 | B4 d4 c4 B4 | %42
w: De- po- su-|it po- ten-|tes de se-|de, et ex- al-|
 A4 G4 (c6 B2 | A2 G2 G8) ^F4 | G16 ||[Q:1/4=130][Q:1/4=130][Q:1/4=130][Q:1/4=130] z18 | z16 || %47
w: ta- vit hu\- *|* * * mi-|les.|||
[Q:1/4=200][Q:1/4=200][Q:1/4=200][Q:1/4=200] z4 G4 (A2 B2 c2 A2 | B4) G4 G4 A4 | B4 B4 c4 A4 | %50
w: Su- sce\- * * *|* pit Is- ra-|el, su- sce- pit|
 (d3 c B8) c4 | d4 B6 B2 c4- |[M:4/2] c4 (B8 A4) | B4 B8 B4 | B8 A4 d4 | d4 c4 B6 B2 | %56
w: Is\- * * ra-|el pu- er- um|* su\- *|um, re- cor-|da- tus mi-|se- ri- cor- di-|
 A4 (G8 ^F4) | G16 ||[Q:1/4=130][Q:1/4=130][Q:1/4=130][Q:1/4=130] z18 | z18 || %60
w: a su\- *|ae.|||
[M:3/2][Q:1/4=200][Q:1/4=200][Q:1/4=200][Q:1/4=200] G6 G2 G4 | A6 A2 B4 | c6 c2 F4 z2 B2 | %63
w: Glo- ri- a|Pa- tri, et|Fi- li- o et|
 A4 G6 G2 G4 | (G4 ^F4) G16 ||[Q:1/4=130][Q:1/4=130][Q:1/4=130][Q:1/4=130] z18 | z16 |] %67
w: Spi- ri- tu- i|san\- * cto.|||
V:2
 x8 x4 x2 || F8 F4 F4 | F12 C4 | (C8 D6) D2 | D16 || z18 | z16 || A,8 C4 C4 | D8 D4 F4 | %9
w: |A- ni- ma|me- a|Do\- * mi-|num.|||Qui- a re-|spe- xit hu-|
 G4 F4 _E8 | (D6 CD _E4) D4 | F4 G8 G4 | F4 G4 F8 | F4 F8 F4 |[M:4/2] F8 F4 C4 | F4 E4 F8 | %16
w: mi- li- ta-|tem * * * an-|cil- lae, an-|cil- lae su-|ae: ec- ce|e- nim ex|hoc be- a-|
 F4 D4 G8 | F8 F8 | D8 F6 F2 | F4 D4 D8 | D16 || z20 | z16 || z16 | A,6 F,2 G,4 B,4 | C4 D4 G,8 | %26
w: tam me di-|cent o-|mnes ge- ne-|ra- ti- o-|nes.||||Et mi- se- ri-|cor- di- a|
 (D6 B,2 C4) C4 | F8 G4 F4- | F4 E4 F8 |[M:4/2] F4 F4 (D6 E2 | F12) F4 | F4 F4 G8 | _E4 G8 ^F4 | %33
w: e\- * * ius|a pro- ge\-|* ni- e|in pro- ge\- *|* ni-|es ti- men-|ti- bus e-|
 G4 D4 _E8 | _E4 C4 D8 | D16 || z18 | z16 || D8 F6 F2 | F4 D4 D8 | D4 D4 F8 | F8 F8 | F4 D4 _E8- | %43
w: um, ti- men-|ti- bus e-|um.|||De- po- su-|it po- ten-|tes de se-|de, et|ex- al- ta\-|
 E4 _E4 D4 D4 | D16 || z18 | z16 || G8 F8 | D4 _E8 C4 | B,4 D4 F8- | F4 G4 _E6 C2 | F4 F6 F2 F4 | %52
w: * vit hu- mi-|les.|||Su- sce-|pit Is- ra-|el, su- sce\-|* pit Is- ra-|el pu- er- um|
[M:4/2] (B,2 C2 D2 E2 F8) | F4 F8 G4 | F8 F4 F4 | F4 F4 F8 | F4 D4 D8 | D16 || z18 | z18 || %60
w: su\- * * * *|um, re- cor-|da- tus mi-|se- ri- cor-|di- a su-|ae.|||
[M:3/2] D6 D2 E4 | F6 F2 F4 | _E6 E2 D4 F4 | F4 D6 D2 _E4 | (_E4 D4) D16 || z18 | z16 |] %67
w: Glo- ri- a|Pa- tri, et|Fi- li- o et|Spi- ri- tu- i|san\- * cto.|||
V:3
 F2 G2 F2 F2 B2 B4 || d8 d4 d4 | d8 c4 (A2 B2 | c2 B2 A2 G2 A4) A4 | G16 || F2 G2 B8 c2 B4 | %6
w: Ma- gni\- * fi\- * cat|A- ni- ma|me- a Do\- *|* * * * * mi-|num.|Et ex- ultavit~spiritus me- us|
 B8 A2 F2 G4 || F8 G4 G4 | B8 B4 B4 | B4 B4 B8 | B12 B4 | (c2 d2 _e2 c2 d4 B2 c2 | d4) _e4 c8 | %13
w: in~Deo~saluta- ri me- o.|Qui- a re-|spe- xit hu-|mi- li- ta-|tem an-|cil\- * * * * * *|* lae su-|
 d4 B8 B4 |[M:4/2][K:treble-8] B8 (A6 B2 | c16) | z8 z4 (_e4- | e4 d2 c2 d4) c4 | (B6 c2 d4) c4 | %19
w: ae: ec- ce|e- nim *||o\-|* * * * mnes|ge\- * * ne-|
 c4 B4 A8 | G16 || F2 G2 B8 c2 B2 B4 | B8 A2 F2 G4 || z8 G6 E2 | F4 A4 (B2 c2 d2 e2 | %25
w: ra- ti- o-|nes.|Qui- a fecit~mihi~magna~qui po- tens est:|et~sanctum~no- men e- ius.|Et mi-|se- ri- cor\- * * *|
 f6) f2 B4 (c4- | c2 B2 B8 A4) | B4 d8 c4 | d4 B4 c4 B4- |[M:4/2][K:treble-8] B4 A4 (B8 | c12) c4 | %31
w: * di- a e\-||ius a pro-|ge- ni- e in|* pro- ge\-|* ni-|
 d4 B4 _e8 | c4 _e4 d8 | G4 B4 B4 G2 G2 | (c2 B2 A2 G2 A8) | G16 || F2 G2 B8 c2 B4 | B8 A2 F2 G4 || %38
w: es ti- men-|ti- bus e-|um, ti- men- ti- bus|e\- * * * *|um.|Fe- cit potentiam~in~brachio su- o:|dispersit~superbos~mente~cor- dis su- i.|
 B8 c6 c2 | c4 B4 A8 | A4 B4 c8 | d8 z4 d4 | c4 B4 A4 G4 | (c6 B2 A4) A4 | G16 || F2 G2 B8 c2 B4 | %46
w: De- po- su-|it po- ten-|tes de se-|de, et|ex- al- ta- vit|hu\- * * mi-|les.|E- su- rientes~implevit bo- nis:|
 B8 A2 F2 G4 || z16 | z16 | z4 G4 (A2 B2 c2 A2 | B4) G4 G4 A4 | B4 d6 d2 c4 | %52
w: et~divites~dimisit i- na- nes.|||Su- sce\- * * *|* pit Is- ra-|el pu- er- um|
[M:4/2][K:treble-8] (d4 c2 B2 c8) | B4 d8 d4 | d8 c4 B4 | B4 c4 d8 | c4 B4 A8 | G16 || %58
w: su\- * * *|um, re- cor-|da- tus mi-|se- ri- cor-|di- a su-|ae.|
 F2 G2 B8 c2 B4 | B8 A2 F2 G2 G4 ||[M:3/2][K:treble-8] =B6 B2 c4 | c6 c2 F4 | G4 A4 B4 d4 | %63
w: Si- cut locutus~est~ad~patres no- stros,|Abraham~et~semini~eius in sae- cu- la.|Glo- ri- a|Pa- tri, et|Fi- li- o et|
 c4 B6 B2 B4 | (c4 A4) G16 || F2 G2 B8 c2 B4 | B8 A2 F2 G4 |] %67
w: Spi- ri- tu- i|san\- * cto.|Si- cut erat~in~principio,~et~nunc,~et sem- per,|et~in~saecula~saeculo- rum. A- men.|
V:4
 x8 x4 x2 || B,,8 B,,4 B,,4 | B,,2 C,2 (D,2 _E,2 F,6 E,D, | C,4 _E,4 D,4) D,4 | G,,16 || z18 | %6
w: |A- ni- ma|me- a Do\- * * * *|* * * mi-|num.||
 z16 || D,8 C,4 C,4 | B,,8 B,,4 B,4 | G,4 D,4 _E,8 | B,,4 B,,4 (_E,2 F,2 G,4) | F,4 C,4 (G,6 A,2 | %12
w: |Qui- a re-|spe- xit hu-|mi- li- ta-|tem an- cil\- * *|lae, an- cil\- *|
 B,4) _E,4 F,8 | B,,4 B,,8 B,,4 |[M:4/2] B,,8 F,,4 F,4 | F,4 C,4 F,8 | D,4 G,4 _E,8 | %17
w: * lae su-|ae: ec- ce|e- nim ex|hoc be- a-|tam me di-|
 B,,4 B,8 F,4 | G,8 D,4 F,4- | F,4 G,4 D,8 | G,,16 || z20 | z16 || F,6 D,2 E,4 C,4 | D,6 D,2 (G,8 | %25
w: cent o- mnes|ge- ne- ra\-|* ti- o-|nes.|||Et mi- se- ri-|cor- di- a|
 F,8) (_E,6 C,2 | D,6 _E,2 C,8) | B,,4 B,8 A,4 | B,4 G,4 F,4 B,,4- |[M:4/2] B,,4 F,4 (G,8 | %30
w: * e\- *||ius a pro-|ge- ni- e in|* pro- ge\-|
 F,12) F,4 | B,,8 z8 | z16 | z4 G,4 _E,8 | C,4 _E,4 D,8 | G,,16 || z18 | z16 || G,8 F,6 F,2 | %39
w: * ni-|es||ti- men-|ti- bus e-|um.|||De- po- su-|
 F,4 G,4 D,8 | D,4 G,4 F,8 | B,,4 B,4 A,4 B,4 | F,4 G,4 C,8- | C,8 D,8 | G,,16 || z18 | z16 || %47
w: it po- ten-|tes de se-|de, et ex- al-|ta- vit hu\-|* mi-|les|||
 z16 | z16 | G,8 F,8 | D,4 _E,8 C,4 | B,,4 B,6 B,2 A,4 |[M:4/2] G,8 F,8 | z4 B,8 G,4 | %54
w: ||Su- sce-|pit Is- ra-|el pu- er- um|su- um,|re- cor-|
 B,8 F,4 B,,4 | B,,4 A,,4 B,,8 | F,,4 G,,4 D,8 | G,,16 || z18 | z18 ||[M:3/2] G,6 G,2 C,4 | %61
w: da- tus mi-|se- ri- cor-|di- a su-|ae.|||Glo- ri- a|
 F,6 F,2 D,4 | C,4 C,4 B,,4 B,4 | F,4 G,6 G,2 _E,4 | (C,4 D,4) G,,16 || z18 | z16 |] %67
w: Pa- tri, et|Fi- li- o et|Spi- ri- tu- i|san\- * cto.|||

